src/assets/address/ArbIcon.svg

<svg viewBox="0 0 40 44" fill="none" xmlns="http://www.w3.org/2000/svg">
<path d="M24.5536 20.1606L27.7849 14.6775L36.4947 28.2431L36.4988 30.8465L36.4704 12.9317C36.4498 12.4937 36.2172 12.093 35.8463 11.8566L20.1654 2.8371C19.7988 2.65678 19.3334 2.65895 18.9674 2.84278C18.9179 2.86769 18.8716 2.8945 18.8272 2.92401L18.7725 2.95839L3.55158 11.7786L3.49256 11.8057C3.41648 11.8404 3.33986 11.8851 3.26757 11.9365C2.97896 12.1433 2.78728 12.4495 2.72528 12.7926C2.71607 12.8446 2.70903 12.8976 2.70605 12.9512L2.72988 27.55L10.8427 14.9759C11.8639 13.3086 14.0894 12.7712 16.1555 12.8007L18.58 12.8646L4.29369 35.7757L5.97771 36.7452L20.4351 12.8879L26.8254 12.8646L12.4054 37.324L18.4145 40.7806L19.1326 41.1932C19.4363 41.3167 19.7942 41.3229 20.1005 41.2122L36.0017 31.9972L32.9615 33.7589L24.5536 20.1606ZM25.7863 37.9172L19.7171 28.3912L23.4222 22.104L31.3931 34.6678L25.7863 37.9172Z" fill="#2D374B"/>
<path d="M19.7153 28.3915L25.7848 37.9173L31.3914 34.6681L23.4204 22.1042L19.7153 28.3915Z" fill="#28A0F0"/>
<path d="M36.4979 30.8467L36.4938 28.2433L27.784 14.6777L24.5527 20.1608L32.9609 33.7591L36.0011 31.9974C36.2992 31.7554 36.4798 31.3999 36.4987 31.0165L36.4979 30.8467Z" fill="#28A0F0"/>
<path d="M0 33.3018L4.29316 35.7756L18.5794 12.8646L16.1549 12.8007C14.0892 12.7714 11.8637 13.3086 10.8421 14.9758L2.72935 27.5499L0 31.7434V33.3018Z" fill="white"/>
<path d="M26.8248 12.8646L20.4344 12.8879L5.97705 36.7452L11.0305 39.6546L12.4045 37.324L26.8248 12.8646Z" fill="white"/>
<path d="M39.191 12.8316C39.1377 11.4952 38.414 10.272 37.2807 9.55965L21.3943 0.423712C20.2732 -0.140786 18.8726 -0.141598 17.7493 0.423442C17.6167 0.490315 2.30023 9.37338 2.30023 9.37338C2.08824 9.47491 1.8841 9.59593 1.69214 9.73347C0.680376 10.4588 0.0636245 11.5856 0 12.8235V31.7438L2.72935 27.5502L2.70553 12.9512C2.70878 12.8979 2.71555 12.8451 2.72475 12.7934C2.78648 12.4498 2.97844 12.1436 3.26705 11.9365C3.33934 11.8851 18.917 2.86771 18.9666 2.8428C19.3329 2.65896 19.798 2.6568 20.1646 2.83711L35.8455 11.8566C36.2164 12.093 36.449 12.4937 36.4695 12.9317V31.016C36.4506 31.3994 36.299 31.7549 36.0009 31.9969L32.9607 33.7586L31.392 34.6678L25.7855 37.917L20.0996 41.2119C19.7934 41.3226 19.4352 41.3164 19.1317 41.1929L12.4046 37.3238L11.0303 39.6543L17.076 43.135C17.2758 43.2487 17.4539 43.3494 17.6001 43.4317C17.8265 43.5587 17.9808 43.6434 18.0352 43.67C18.4649 43.8787 19.083 44 19.6402 44C20.1508 44 20.649 43.9063 21.1203 43.7217L37.6354 34.1577C38.5832 33.4232 39.141 32.3156 39.191 31.1159V12.8316Z" fill="#96BEDC"/>
</svg>

<svg xmlns="http://www.w3.org/2000/svg" fill="none" viewBox="0 0 40 44"><path fill="#2D374B" d="m24.554 20.16 3.23-5.482 8.71 13.565.005 2.604-.029-17.915a1.35 1.35 0 0 0-.624-1.075l-15.68-9.02a1.382 1.382 0 0 0-1.339.087l-.055.034-15.22 8.82-.06.028a1.344 1.344 0 0 0-.787 1.146l.025 14.598 8.113-12.574c1.02-1.667 3.246-2.205 5.313-2.175l2.424.064-14.286 22.91 1.684.97 14.457-23.857 6.39-.023-14.42 24.459 6.01 3.457.718.412c.303.124.661.13.968.02L36 31.996l-3.04 1.762-8.407-13.598Zm1.232 17.757-6.069-9.526 3.705-6.287 7.971 12.564-5.607 3.25Z"/><path fill="#28A0F0" d="m19.715 28.392 6.07 9.525 5.606-3.249-7.97-12.564-3.706 6.288ZM36.498 30.847l-.004-2.604-8.71-13.565-3.231 5.483 8.408 13.598L36 31.997c.298-.242.479-.597.498-.98l-.001-.17Z"/><path fill="#fff" d="m0 33.302 4.293 2.474L18.58 12.865l-2.424-.064c-2.066-.03-4.291.508-5.313 2.175L2.73 27.55 0 31.743v1.559ZM26.825 12.865l-6.39.023L5.976 36.745l5.053 2.91 1.375-2.331 14.42-24.46Z"/><path fill="#96BEDC" d="M39.191 12.832a4.07 4.07 0 0 0-1.91-3.272L21.394.424a4.133 4.133 0 0 0-3.645 0C17.617.49 2.3 9.373 2.3 9.373a4.04 4.04 0 0 0-2.3 3.45v18.92l2.73-4.194-.024-14.599a1.345 1.345 0 0 1 .562-1.015c.071-.05 15.649-9.068 15.699-9.093a1.382 1.382 0 0 1 1.198-.006l15.68 9.02c.371.236.604.637.624 1.075v18.084c-.018.383-.17.739-.468.98l-3.04 1.763-1.569.909-5.607 3.249-5.685 3.295c-.307.11-.665.104-.968-.02l-6.727-3.868-1.375 2.33 6.046 3.481.524.297c.226.127.38.211.435.238.43.209 1.048.33 1.605.33.51 0 1.009-.094 1.48-.278l16.515-9.564a4.037 4.037 0 0 0 1.556-3.042V12.832Z"/></svg>
